X: 31487
T: Paddy Whack
R: jig
M: 6/8
K: Gmajor
|:D|GBd gfg|edc BAG|GBd efg|fdd def|
G>ag gdB|cde dBG|GBd cAd|BGG G2:|
|:A|BBB cBc|dBG (A2 G)|GBd efg|afd def|
G>ag gdB|cde dBG|GBd cAd|BGG G2:|

